data/styles/clear/style-night/symbols/charging-station-m.svg

<svg height="24" viewBox="0 0 24 24" width="24"><g fill="none" fill-rule="evenodd"><circle cx="12" cy="12" fill="#fff" opacity=".4" r="12"/><circle cx="12" cy="12" fill="#3d3d36" r="11"/><path d="m13.3822158 11.7023718h.7687642c.7265244 0 1.3347774.6420449 1.3347774 1.3685693v.0506877l-.2872305 2.4836997c.0337918.5575653.4730856.9968591 1.0306509.9968591.3210224 0 .608253-.1520632.811004-.3886061.185855-.2534387.2365428-.5575652.1689591-.8785876l-.6589407-3.1088487c-.0675837-.2196469-.1182714-.4899815-.1182714-.7265244v-.7603162l-.3379184-.4899816c.016896-1.26719373-1.3685692-2.55128339-1.3685692-2.55128339l.3717102-.59135708c2.8385139 1.08133866 2.6357629 3.02436907 2.6357629 3.02436907l-.5068775.608253h-.0506877v.7603162c0 .1858551.0506877.3548143.1013755.5575653l.6758367 3.1088486c.1182714.5068775.0168959 1.0644428-.3210225 1.5206325-.3379183.4392938-.8447958.6758367-1.3854651.6758367-.9799632 0-1.7571753-.7772122-1.7571753-1.7571754v-.0506877l.2703346-2.5174916c0-.3379183-.2703346-.608253-.608253-.608253h-.7687642v4.6444276h.922777v.9227769h-8.3049928v-.9227769h.92277698v-10.07110998c0-.55441165.45187332-1.00221382 1.00928732-1.00221382h4.4408642c.5653039 0 1.0092873.44870641 1.0092873 1.00221382zm-3.80645501 3.525398 2.88367811-3.9012453h-2.3069425l.5767356-2.55819356-2.88367804 3.90124526h2.24926884z" fill="#fff" opacity=".6"/></g></svg>

<svg width="24" height="24" viewBox="0 0 24 24">
  <g fill="none" fill-rule="evenodd">
    <circle cx="12" cy="12" r="12" fill="#FFF" opacity=".4"/>
    <circle cx="12" cy="12" r="11" fill="#3D3D36"/>
    <path fill="#FFF" d="M7.9320643,6 L12.3729285,6 C12.9382324,6 13.3822158,6.44870641 13.3822158,7.00221382 L13.3822158,17.0733238 L14.3049928,17.0733238 L14.3049928,17.9961007 L6,17.9961007 L6,17.0733238 L6.92277698,17.0733238 L6.92277698,7.00221382 C6.92277698,6.44780217 7.3746503,6 7.9320643,6 Z M17.2767246,12.0571861 L17.9525613,15.1660347 C18.0708327,15.6729122 17.9694572,16.2304775 17.6315388,16.6866672 C17.2936205,17.125961 16.786743,17.3625039 16.2460737,17.3625039 C15.2661105,17.3625039 14.4888984,16.5852917 14.4888984,15.6053285 L14.4888984,15.5546408 L14.759233,13.0371492 C14.759233,12.6992309 14.4888984,12.4288962 14.15098,12.4288962 L13.3822158,12.4288962 L13.3822158,11.7023718 L14.15098,11.7023718 C14.8775044,11.7023718 15.4857574,12.3444167 15.4857574,13.0709411 L15.4857574,13.1216288 L15.1985269,15.6053285 C15.2323187,16.1628938 15.6716125,16.6021876 16.2291778,16.6021876 C16.5502002,16.6021876 16.8374308,16.4501244 17.0401818,16.2135815 C17.2260368,15.9601428 17.2767246,15.6560163 17.2091409,15.3349939 L16.5502002,12.2261452 C16.4826165,12.0064983 16.4319288,11.7361637 16.4319288,11.4996208 L16.4319288,10.7393046 L16.0940104,10.249323 C16.1109064,8.98212927 14.7254412,7.69803961 14.7254412,7.69803961 L15.0971514,7.10668253 C17.9356653,8.18802119 17.7329143,10.1310516 17.7329143,10.1310516 L17.2260368,10.7393046 L17.1753491,10.7393046 L17.1753491,11.4996208 C17.1753491,11.6854759 17.2260368,11.8544351 17.2767246,12.0571861 Z M9.57576079,15.2277698 L12.4594389,11.3265245 L10.1524964,11.3265245 L10.729232,8.76833094 L7.84555396,12.6695762 L10.0948228,12.6695762 L9.57576079,15.2277698 Z" opacity=".6"/>
  </g>
</svg>
